X:100
T:Waltz. CJF.100
R:schot
S:C.J.Fox MS, 1829/33, Beverley,E.Yorks.
N:Title is Waltz and TS is 2/4 in MS. – PJH.
B:Kidson Coll.Mitchell Lib.M1805
O:England
A:East Yorkshire
Z:vmp.P J Headford 2000 & 2008
M:2/4
L:1/16
Q:1/4=90
K:G
Bc|d2g2 fgaf|g2b2 d2^d2|e2c’b abag|fgfe dcBc|\
d2g2 fgaf|g2b2 d2^d2|ecc’a g2f2|hg4 dcBc:|!
dgfa gbgd|dcBc A3B|dfag fedc|B2G2 GBdg|\
egfg agfg|dgfg agfg|ec’e’d’ c’d’c’b|agfe ” D.C.”dcBc|]

